X:51
T:Covent Garden Row
C:Trad ed. PJHeadford
R:slipjig
S:Snowshill Manor
N:SH.004
M:9/8
L:1/8
Q:3/8=110
P:A2
K:D
P:A
|:d2A AFA AFA|d2d def g2f|e2e efe cde|A2A ABc d3:|] :a2a aba ^g2e|=g2g
|gag f2e|d2d dcd efg|A2A ABc d3:|]

